bottle-tonic-skull.svg

<svg fill="currentColor" viewBox="0 0 24 24"><path d="M19 13v9H5v-9c0-2.76 2.24-5 5-5V6H9V5h6v1h-1v2c2.76 0 5 2.24 5 5m-6-9 1-2h-4l1 2zm-1 7c-2.21 0-4 1.79-4 4 0 1 .39 1.9 1 2.59V19h1.25v-1.5h1.13V19h1.25v-1.5h1.12V19H15v-1.41A3.9 3.9 0 0 0 16 15c0-2.21-1.79-4-4-4m-1.5 4c-.55 0-1-.45-1-1s.45-1 1-1 1 .45 1 1-.45 1-1 1m.75 1.25L12 15l.75 1.25zM13.5 15c-.55 0-1-.45-1-1s.45-1 1-1 1 .45 1 1-.45 1-1 1"/></svg>

<svg  viewBox="0 0 24 24" fill="currentColor"><path  d="M19 13V22H5V13C5 10.24 7.24 8 10 8V6H9V5H15V6H14V8C16.76 8 19 10.24 19 13M13 4L14 2H10L11 4H13M12 11C9.79 11 8 12.79 8 15C8 16 8.39 16.9 9 17.59V19H10.25V17.5H11.38V19H12.63V17.5H13.75V19H15V17.59C15.61 16.9 16 16 16 15C16 12.79 14.21 11 12 11M10.5 15C9.95 15 9.5 14.55 9.5 14S9.95 13 10.5 13 11.5 13.45 11.5 14 11.05 15 10.5 15M11.25 16.25L12 15L12.75 16.25H11.25M13.5 15C12.95 15 12.5 14.55 12.5 14S12.95 13 13.5 13 14.5 13.45 14.5 14 14.05 15 13.5 15Z"/></svg>
